findly-builder/apps/searchassist/src/assets/icons/analytics/thumb-red.svg

<svg width="13" height="13" viewBox="0 0 13 13" fill="none" xmlns="http://www.w3.org/2000/svg">
<path d="M0 5.95833C0 6.3765 0.162203 6.7535 0.421727 7.04167C0.162203 7.32983 0 7.70683 0 8.125C0 9.02092 0.72775 9.75 1.62203 9.75H5.89228L5.49543 10.92C5.37431 11.3371 5.42189 11.7758 5.63059 12.1561C5.83929 12.5363 6.18317 12.8137 6.5984 12.935C7.36076 13.1527 8.13068 12.8223 8.68865 11.96L10.6837 8.66667H13V0H10.4318V0.0270824C10.3885 0.0151663 10.3453 0 10.2966 0H2.70338C1.8091 0 1.08135 0.729083 1.08135 1.625C1.08135 1.86983 1.13974 2.0995 1.23707 2.30858C0.669356 2.56208 0.270338 3.12975 0.270338 3.79167C0.270338 4.14158 0.383881 4.46442 0.572035 4.72983C0.224921 5.02775 0 5.46542 0 5.95833ZM11.9186 7.58333H10.8373V1.08333H11.9186V7.58333ZM2.70338 1.08333H9.75595V8.10875L7.77275 11.3826C7.4278 11.9167 7.1553 11.9167 7.05257 11.9167C7.00175 11.9167 6.94984 11.9091 6.9001 11.8939C6.61462 11.8116 6.44918 11.5104 6.52595 11.245L7.15854 9.38167C7.21585 9.21808 7.18882 9.035 7.08717 8.89308C6.98553 8.75117 6.82224 8.66667 6.64706 8.66667H1.62203C1.32357 8.66667 1.08135 8.42292 1.08135 8.125C1.08135 7.82708 1.32357 7.58333 1.62203 7.58333H3.24405V6.5H1.62203C1.32357 6.5 1.08135 6.25625 1.08135 5.95833C1.08135 5.66042 1.32357 5.41667 1.62203 5.41667H3.24405V4.33333H1.89236C1.59391 4.33333 1.35169 4.08958 1.35169 3.79167C1.35169 3.49375 1.59391 3.25 1.89236 3.25H3.24405V2.16667H2.70338C2.40492 2.16667 2.1627 1.92292 2.1627 1.625C2.1627 1.32708 2.40492 1.08333 2.70338 1.08333Z" fill="#DD3646"/>
</svg>

<svg width="13" height="13" fill="none" xmlns="http://www.w3.org/2000/svg"><path d="M0 5.958c0 .418.162.795.422 1.084A1.61 1.61 0 0 0 0 8.125C0 9.021.728 9.75 1.622 9.75h4.27l-.397 1.17c-.12.417-.073.856.136 1.236.208.38.552.658.967.779.763.218 1.533-.113 2.09-.975l1.996-3.293H13V0h-2.568v.027C10.389.015 10.345 0 10.297 0H2.703C1.81 0 1.081.73 1.081 1.625c0 .245.059.474.156.684A1.617 1.617 0 0 0 .572 4.73 1.616 1.616 0 0 0 0 5.958Zm11.919 1.625h-1.082v-6.5h1.082v6.5Zm-9.216-6.5h7.053V8.11l-1.983 3.274c-.345.534-.618.534-.72.534a.537.537 0 0 1-.527-.672l.633-1.863a.54.54 0 0 0-.511-.715H1.621a.542.542 0 0 1 0-1.084h1.622V6.5H1.622a.542.542 0 0 1 0-1.083h1.622V4.333H1.892a.542.542 0 0 1 0-1.083h1.352V2.167h-.54a.542.542 0 0 1 0-1.084Z" fill="#DD3646"/></svg>
